icons/svg/road_shields/h_blue_usishield_3_road_shield.svg

<?xml version="1.0" encoding="UTF-8" standalone="no"?>
<!-- Generator: Adobe Illustrator 16.0.4, SVG Export Plug-In . SVG Version: 6.00 Build 0)  -->

<svg
   xmlns:dc="http://purl.org/dc/elements/1.1/"
   xmlns:cc="http://creativecommons.org/ns#"
   xmlns:rdf="http://www.w3.org/1999/02/22-rdf-syntax-ns#"
   xmlns:svg="http://www.w3.org/2000/svg"
   xmlns="http://www.w3.org/2000/svg"
   xmlns:sodipodi="http://sodipodi.sourceforge.net/DTD/sodipodi-0.dtd"
   xmlns:inkscape="http://www.inkscape.org/namespaces/inkscape"
   version="1.1"
   id="Слой_1"
   x="0px"
   y="0px"
   width="34"
   height="25"
   viewBox="0 0 34 25"
   enable-background="new 0 0 17.143 17.17"
   xml:space="preserve"
   inkscape:version="0.91 r13725"
   sodipodi:docname="h_blue_usishield_3_road_shield.svg"><metadata
     id="metadata13"><rdf:RDF><cc:Work
         rdf:about=""><dc:format>image/svg+xml</dc:format><dc:type
           rdf:resource="http://purl.org/dc/dcmitype/StillImage" /><dc:title></dc:title></cc:Work></rdf:RDF></metadata><defs
     id="defs11" /><sodipodi:namedview
     pagecolor="#ffffff"
     bordercolor="#666666"
     borderopacity="1"
     objecttolerance="10"
     gridtolerance="10"
     guidetolerance="10"
     inkscape:pageopacity="0"
     inkscape:pageshadow="2"
     inkscape:window-width="1920"
     inkscape:window-height="1006"
     id="namedview9"
     showgrid="false"
     inkscape:zoom="16.000001"
     inkscape:cx="11.131925"
     inkscape:cy="16.34883"
     inkscape:window-x="1920"
     inkscape:window-y="0"
     inkscape:window-maximized="1"
     inkscape:current-layer="Слой_1" /><path
     style="opacity:0.781;fill:#f1eae4;fill-opacity:1"
     d="m 16.940559,0.48632812 c -0.09972,0.004189 -0.198673,0.0185953 -0.295155,0.0429688 C 14.4457,1.0823215 12.121181,1.3789062 9.7154166,1.3789062 7.4361577,1.3789062 5.2299631,1.1134284 3.133875,0.61523438 2.483817,0.46134855 1.8109871,0.77083267 1.5330703,1.3515625 0.86068355,2.7578667 0.3921885,4.2620863 0.16388012,5.8339844 0.05195926,6.9586832 0.02588305,7.0815165 0.01220337,7.9179688 c 0,8.6469132 7.41321503,15.7073242 16.83407063,16.7070312 0.102173,0.01083 0.205283,0.01083 0.307452,0 C 26.574587,23.625293 33.987797,16.564881 33.987797,7.9179688 33.953293,7.1737652 33.925869,6.732205 33.836121,5.8339844 33.607851,4.2620367 33.139306,2.7578452 32.466929,1.3515625 32.189013,0.77083294 31.516183,0.46134888 30.866125,0.61523438 28.77013,1.1134384 26.56385,1.3789062 24.284583,1.3789062 c -2.405765,0 -4.730255,-0.296583 -6.929987,-0.84960932 -0.134967,-0.0340437 -0.274544,-0.048529 -0.414037,-0.0429688 z"
     id="path4160"
     inkscape:connector-curvature="0"
     sodipodi:nodetypes="ccsccccccccccscc" /><path
     style="fill:#003f87;fill-opacity:1"
     d="m 1.4471223,6.7994289 c -0.028169,0.347835 -0.045146,0.8299969 -0.045146,1.1179764 0,7.9235027 6.80876,14.4581637 15.5980237,15.3908487 8.789268,-0.932685 15.598023,-7.467346 15.598023,-15.3908487 0,-0.2879795 -0.02234,-1.238996 -0.143002,-1.934666 l -30.917884,0 c 0,0 -0.061846,0.4688546 -0.090015,0.8166896 z"
     id="path13"
     inkscape:connector-curvature="0"
     sodipodi:nodetypes="zscsccz" /><g
     transform="matrix(0.04334656,0,0,0.03845304,0.74506096,1.2097854)"
     id="g15"
     style="fill:#af1e2d;fill-opacity:1"><path
       inkscape:connector-curvature="0"
       id="path17"
       style="fill:#af1e2d;fill-opacity:1"
       d="m 47.37793,17.942871 c 50.892089,13.635254 104.38769,20.90625 159.58203,20.90625 58.26074,0 114.6294,-8.101074 168.04004,-23.237793 53.41113,15.136719 109.7793,23.237793 168.04004,23.237793 55.19434,0 108.69043,-7.270508 159.58105,-20.90625 14.26172,33.624512 24.16407,69.546387 28.9961,107.056149 l -713.235354,0 C 23.214844,87.489258 33.116211,51.567383 47.37793,17.942871 Z" /></g></svg>

<svg width="34" height="25" viewBox="0 0 34 25" fill="none" xmlns="http://www.w3.org/2000/svg">
<path opacity="0.781" d="M16.9406 0.486327C16.8408 0.490516 16.7419 0.504922 16.6454 0.529295C14.4457 1.08232 12.1212 1.3789 9.71542 1.3789C7.43616 1.3789 5.22997 1.11343 3.13388 0.615233C2.48382 0.461347 1.81099 0.770831 1.53307 1.35156C0.860687 2.75787 0.392192 4.26208 0.163884 5.83398C0.0519629 6.95868 0.0258867 7.08152 0.012207 7.91797C0.012207 16.5649 7.42542 23.6253 16.8463 24.625C16.9485 24.6358 17.0516 24.6358 17.1537 24.625C26.5746 23.6253 33.9878 16.5649 33.9878 7.91797C33.9533 7.17376 33.9259 6.7322 33.8361 5.83398C33.6079 4.26204 33.1393 2.75784 32.4669 1.35156C32.189 0.770831 31.5162 0.461347 30.8661 0.615233C28.7701 1.11344 26.5639 1.3789 24.2846 1.3789C21.8788 1.3789 19.5543 1.08232 17.3546 0.529295C17.2196 0.495252 17.0801 0.480766 16.9406 0.486326V0.486327Z" fill="#F1EAE4"/>
<path d="M1.44712 6.79942C1.41895 7.14725 1.40198 7.62941 1.40198 7.91739C1.40198 15.8409 8.21074 22.3756 17 23.3082C25.7893 22.3756 32.598 15.8409 32.598 7.91739C32.598 7.62941 32.5757 6.6784 32.455 5.98273H1.53714C1.53714 5.98273 1.47529 6.45158 1.44712 6.79942H1.44712Z" fill="#003F87"/>
<path d="M2.79872 1.89974C5.00472 2.42406 7.32357 2.70365 9.71605 2.70365C12.2415 2.70365 14.6848 2.39214 17 1.81009C19.3152 2.39214 21.7586 2.70365 24.284 2.70365C26.6765 2.70365 28.9953 2.42408 31.2013 1.89974C31.8195 3.19271 32.2487 4.57401 32.4581 6.01638H1.54184C1.75133 4.57401 2.18052 3.19271 2.79872 1.89974Z" fill="#AF1E2D"/>
</svg>
